icons/exercise_yoga_fill.svg

<svg width="48" height="48" viewBox="0 0 48 48" fill="none" xmlns="http://www.w3.org/2000/svg">
<path d="M29 10C29 12.7614 26.7614 15 24 15C21.2386 15 19 12.7614 19 10C19 7.23858 21.2386 5 24 5C26.7614 5 29 7.23858 29 10Z" fill="black"/>
<path d="M31 43C31 43.5523 30.5523 44 30 44H12.8559C11.2786 44 10 42.7214 10 41.1441C10 40.1566 10.5102 39.2392 11.349 38.7182L16.6329 35.4363C17.5141 34.8889 18.05 33.9252 18.05 32.8878V32H20.424C21.4849 32 22.5023 31.5786 23.2524 30.8284L24 30.0809L24.7475 30.8284C25.4977 31.5786 26.5151 32 27.576 32H30V32.8915C30 33.9259 30.5329 34.8873 31.41 35.4355L36.6556 38.714C37.4919 39.2367 38 40.1534 38 41.1396C38 42.7194 36.7194 44 35.1396 44H32.8293C32.9398 43.6872 33 43.3506 33 43V42.7503C33 41.2472 31.8876 39.9761 30.3978 39.7767L17.1826 38.0088C16.6352 37.9356 16.1321 38.32 16.0588 38.8674C15.9856 39.4148 16.37 39.9179 16.9174 39.9912L30.1326 41.7591C30.6292 41.8255 31 42.2492 31 42.7503V43Z" fill="black"/>
<path d="M26.1617 29.4142L25 28.2525V24.51C25.1481 24.5956 25.2875 24.7017 25.4142 24.8284L27.2929 26.7071C27.4804 26.8946 27.7348 27 28 27H31C31.3466 27 31.6684 26.8205 31.8506 26.5257C32.0328 26.2309 32.0494 25.8628 31.8944 25.5528L30.8944 23.5528C30.6474 23.0588 30.0467 22.8586 29.5528 23.1056C29.0588 23.3526 28.8586 23.9532 29.1056 24.4472L29.3819 25H28.4142L26.8284 23.4142C25.2663 21.8521 22.7336 21.8521 21.1716 23.4142L19.5858 25H18.618L18.8944 24.4472C19.1414 23.9532 18.9412 23.3526 18.4472 23.1056C17.9532 22.8586 17.3525 23.0588 17.1056 23.5528L16.1056 25.5528C15.9506 25.8628 15.9671 26.2309 16.1493 26.5257C16.3315 26.8205 16.6534 27 17 27H20C20.2652 27 20.5195 26.8946 20.7071 26.7071L22.5858 24.8284C22.7125 24.7017 22.8519 24.5956 23 24.51V28.2525L21.8382 29.4142C21.4631 29.7893 20.9544 30 20.424 30H14.3855C12.9788 30 12.0116 28.5862 12.5215 27.2751L15.5256 19.5502C16.1235 18.0127 17.604 17 19.2536 17H28.7463C30.396 17 31.8764 18.0127 32.4743 19.5502L35.4785 27.2751C35.9883 28.5862 35.0212 30 33.6144 30H27.576C27.0455 30 26.5368 29.7893 26.1617 29.4142Z" fill="black"/>
</svg>

<svg
  xmlns="http://www.w3.org/2000/svg"
  width="24"
  height="24"
  viewBox="0 0 24 24"
  fill="none"
  stroke="currentColor"
  stroke-width="2"
  stroke-linecap="round"
  stroke-linejoin="round"
>
  <path d="M29 10a5 5 0 1 1-10 0 5 5 0 0 1 10 0" />
  <path d="M31 43a1 1 0 0 1-1 1H12.856a2.856 2.856 0 0 1-1.507-5.282l5.284-3.282a3 3 0 0 0 1.417-2.548V32h2.374a4 4 0 0 0 2.828-1.172l.748-.747.747.747A4 4 0 0 0 27.577 32H30v.892a3 3 0 0 0 1.41 2.543l5.246 3.279A2.86 2.86 0 0 1 35.14 44h-2.31c.11-.313.17-.65.17-1v-.25a3 3 0 0 0-2.602-2.973l-13.215-1.768a1 1 0 0 0-.266 1.982l13.216 1.768a1 1 0 0 1 .867.991z" />
  <path d="M26.162 29.414 25 28.252V24.51q.224.129.414.318l1.879 1.88A1 1 0 0 0 28 27h3a1 1 0 0 0 .894-1.447l-1-2a1 1 0 1 0-1.788.894l.276.553h-.968l-1.586-1.586a4 4 0 0 0-5.656 0L19.586 25h-.968l.276-.553a1 1 0 1 0-1.788-.894l-1 2A1 1 0 0 0 17 27h3a1 1 0 0 0 .707-.293l1.879-1.879q.191-.189.414-.318v3.742l-1.162 1.162a2 2 0 0 1-1.414.586h-6.038a2 2 0 0 1-1.864-2.725l3.004-7.725A4 4 0 0 1 19.254 17h9.492a4 4 0 0 1 3.728 2.55l3.005 7.725A2 2 0 0 1 33.613 30h-6.038a2 2 0 0 1-1.414-.586" />
</svg>
